;FLAVOR:Marlin
;TIME:246
;Filament used: 0.093089m
;Layer height: 0.2
;MINX:95.087
;MINY:101.339
;MINZ:0.2
;MAXX:134.913
;MAXY:128.661
;MAXZ:4
;TARGET_MACHINE.NAME:Creality Ender-3 v2 Neo
;Generated with Cura_SteamEngine 5.7.0
M140 S60
M105
M190 S60
M104 S200
M105
M109 S200
M82 ;absolute extrusion mode
G92 E0 ;Reset Extruder
G28 ;Home
G1 Z2.0 F3000 ;Move Z Axis up
G1 X10.1 Y20 Z0.28 F5000.0 ;Move to start position
G1 X10.1 Y200.0 Z0.28 F1500.0 E15 ;Draw the first line
G1 X10.4 Y200.0 Z0.28 F5000.0 ;Move to side a little
G1 X10.4 Y20 Z0.28 F1500.0 E30 ;Draw the second line
G92 E0 ;Reset Extruder
G1 Z2.0 F3000 ;Move Z Axis up
G92 E0
G92 E0
G1 F1500 E-4
;LAYER_COUNT:20
;LAYER:0
M107
G0 F6000 X98.797 Y104.878 Z0.2
;TYPE:SKIRT
G1 F1500 E0
G1 F1200 X99.46 Y104.265 E0.03003
G1 X100.28 Y103.633 E0.06447
G1 X100.976 Y103.178 E0.09212
G1 X101.821 Y102.696 E0.12448
G1 X102.698 Y102.292 E0.15659
G1 X103.465 Y102.007 E0.18381
G1 X104.328 Y101.743 E0.21383
G1 X105.308 Y101.535 E0.24715
G1 X105.943 Y101.446 E0.26847
G1 X106.325 Y101.407 E0.28124
G1 X107.324 Y101.348 E0.31453
G1 X108.091 Y101.339 E0.34004
G1 X121.886 Y101.339 E0.79887
G1 X122.769 Y101.352 E0.82824
G1 X123.785 Y101.416 E0.8621
G1 X124.119 Y101.454 E0.87328
G1 X125.096 Y101.611 E0.90619
G1 X126.399 Y101.965 E0.9511
G1 X126.765 Y102.09 E0.96396
G1 X127.669 Y102.449 E0.99631
G1 X128.476 Y102.853 E1.02633
G1 X129.233 Y103.306 E1.05567
G1 X130.006 Y103.838 E1.08688
G1 X130.73 Y104.433 E1.11805
G1 X131.38 Y105.057 E1.14802
G1 X132.039 Y105.775 E1.18043
G1 X132.59 Y106.49 E1.21046
G1 X133.062 Y107.204 E1.23892
G1 X133.545 Y108.047 E1.27124
G1 X133.939 Y108.897 E1.3024
G1 X134.267 Y109.791 E1.33407
G1 X134.553 Y110.764 E1.3678
G1 X134.793 Y112.082 E1.41236
G1 X134.831 Y112.413 E1.42344
G1 X134.901 Y113.488 E1.45927
G1 X134.912 Y114.249 E1.48459
G1 X134.913 Y115.606 E1.52972
G1 X134.9 Y116.508 E1.55972
G1 X134.839 Y117.504 E1.59291
G1 X134.803 Y117.826 E1.60369
G1 X134.649 Y118.803 E1.63659
G1 X134.418 Y119.742 E1.66875
G1 X134.15 Y120.547 E1.69697
G1 X133.769 Y121.486 E1.73067
G1 X133.131 Y122.68 E1.7757
G1 X132.956 Y122.962 E1.78674
G1 X132.395 Y123.779 E1.8197
G1 X131.779 Y124.525 E1.85188
G1 X131.184 Y125.141 E1.88036
G1 X130.519 Y125.752 E1.9104
G1 X129.699 Y126.382 E1.94479
G1 X129.024 Y126.822 E1.97159
G1 X128.179 Y127.304 E2.00395
G1 X127.303 Y127.708 E2.03603
G1 X126.606 Y127.969 E2.06079
G1 X125.631 Y128.267 E2.0947
G1 X124.72 Y128.461 E2.12568
G1 X124.05 Y128.555 E2.14818
G1 X123.666 Y128.594 E2.16102
G1 X122.676 Y128.652 E2.194
G1 X121.899 Y128.661 E2.21984
G1 X107.967 Y128.66 E2.68322
G1 X107.231 Y128.648 E2.70771
G1 X106.215 Y128.584 E2.74157
G1 X105.882 Y128.546 E2.75271
G1 X104.922 Y128.393 E2.78505
G1 X103.985 Y128.16 E2.81716
G1 X103.223 Y127.906 E2.84388
G1 X102.351 Y127.56 E2.87508
G1 X101.458 Y127.111 E2.90832
G1 X100.745 Y126.68 E2.93603
G1 X100.001 Y126.168 E2.96607
G1 X99.226 Y125.528 E2.9995
G1 X98.618 Y124.941 E3.02761
G1 X98.005 Y124.278 E3.05764
G1 X97.371 Y123.457 E3.09214
G1 X96.933 Y122.787 E3.11877
G1 X96.44 Y121.92 E3.15194
G1 X96.038 Y121.043 E3.18403
G1 X95.748 Y120.255 E3.21196
G1 X95.465 Y119.307 E3.24486
G1 X95.21 Y117.936 E3.29124
G1 X95.173 Y117.62 E3.30182
G1 X95.099 Y116.5 E3.33916
G1 X95.087 Y115.546 E3.37089
G1 X95.088 Y114.16 E3.41699
G1 X95.101 Y113.452 E3.44054
G1 X95.161 Y112.487 E3.4727
G1 X95.195 Y112.182 E3.48291
G1 X95.349 Y111.203 E3.51587
G1 X95.58 Y110.267 E3.54793
G1 X95.849 Y109.452 E3.57648
G1 X96.183 Y108.613 E3.60651
G1 X96.65 Y107.687 E3.64101
G1 X97.096 Y106.956 E3.66949
G1 X97.611 Y106.214 E3.69953
G1 X98.53 Y105.151 E3.74627
G1 X98.797 Y104.878 E3.75897
G0 F6000 X99.069 Y105.172
G1 F1200 X99.732 Y104.559 E3.789
G1 X100.499 Y103.968 E3.82121
G1 X101.175 Y103.525 E3.84809
G1 X101.989 Y103.059 E3.87928
G1 X102.837 Y102.667 E3.91036
G1 X103.582 Y102.39 E3.93679
G1 X104.445 Y102.126 E3.96681
G1 X105.363 Y101.931 E3.99802
G1 X105.985 Y101.844 E4.01891
G1 X106.349 Y101.806 E4.03108
G1 X107.329 Y101.748 E4.06374
G1 X108.096 Y101.739 E4.08925
G1 X121.88 Y101.739 E4.54771
G1 X122.744 Y101.751 E4.57645
G1 X123.74 Y101.813 E4.60964
G1 X124.056 Y101.849 E4.62021
G1 X124.991 Y101.997 E4.6517
G1 X126.294 Y102.351 E4.69661
G1 X126.618 Y102.462 E4.708
G1 X127.49 Y102.807 E4.73919
G1 X128.297 Y103.211 E4.76921
G1 X129.006 Y103.636 E4.7967
G1 X129.779 Y104.168 E4.82791
G1 X130.476 Y104.742 E4.85794
G1 X131.086 Y105.328 E4.88608
G1 X131.722 Y106.019 E4.91731
G1 X132.273 Y106.734 E4.94734
G1 X132.715 Y107.403 E4.974
G1 X133.182 Y108.216 E5.00519
G1 X133.563 Y109.035 E5.03523
G1 X133.891 Y109.929 E5.0669
G1 X134.159 Y110.836 E5.09836
G1 X134.399 Y112.154 E5.14292
G1 X134.432 Y112.439 E5.15246
G1 X134.501 Y113.494 E5.18763
G1 X134.512 Y114.249 E5.21274
G1 X134.513 Y115.601 E5.25771
G1 X134.501 Y116.483 E5.28705
G1 X134.441 Y117.46 E5.3196
G1 X134.405 Y117.782 E5.33038
G1 X134.261 Y118.708 E5.36155
G1 X134.038 Y119.616 E5.39264
G1 X133.779 Y120.397 E5.42001
G1 X133.416 Y121.297 E5.45229
G1 X132.778 Y122.491 E5.49732
G1 X132.626 Y122.736 E5.50691
G1 X132.086 Y123.525 E5.53871
G1 X131.491 Y124.247 E5.56982
G1 X130.913 Y124.846 E5.59751
G1 X130.248 Y125.457 E5.62754
G1 X129.48 Y126.047 E5.65976
G1 X128.825 Y126.475 E5.68578
G1 X128.011 Y126.941 E5.71698
G1 X127.163 Y127.333 E5.74805
G1 X126.466 Y127.594 E5.7728
G1 X125.547 Y127.876 E5.80478
G1 X124.664 Y128.065 E5.83481
G1 X124.009 Y128.157 E5.85681
G1 X123.643 Y128.195 E5.86905
G1 X122.671 Y128.252 E5.90143
G1 X121.899 Y128.261 E5.92711
G1 X107.973 Y128.26 E6.39029
G1 X107.256 Y128.249 E6.41414
G1 X106.26 Y128.187 E6.44733
G1 X105.944 Y128.151 E6.45791
G1 X105.018 Y128.005 E6.48909
G1 X104.111 Y127.78 E6.52017
G1 X103.371 Y127.534 E6.54611
G1 X102.499 Y127.188 E6.57731
G1 X101.665 Y126.768 E6.60837
G1 X100.972 Y126.35 E6.63529
G1 X100.228 Y125.838 E6.66533
G1 X99.504 Y125.24 E6.69656
G1 X98.912 Y124.669 E6.72391
G1 X98.299 Y124.006 E6.75395
G1 X97.706 Y123.238 E6.78622
G1 X97.268 Y122.568 E6.81284
G1 X96.803 Y121.753 E6.84405
G1 X96.413 Y120.904 E6.87513
G1 X96.131 Y120.14 E6.90221
G1 X95.858 Y119.234 E6.93368
G1 X95.607 Y117.889 E6.97919
G1 X95.572 Y117.593 E6.98911
G1 X95.499 Y116.495 E7.02571
G1 X95.487 Y115.546 E7.05727
G1 X95.488 Y114.167 E7.10314
G1 X95.5 Y113.477 E7.12609
G1 X95.559 Y112.531 E7.15762
G1 X95.593 Y112.226 E7.16782
G1 X95.737 Y111.299 E7.19902
G1 X95.96 Y110.392 E7.23009
G1 X96.221 Y109.6 E7.25783
G1 X96.555 Y108.761 E7.28786
G1 X96.992 Y107.895 E7.32012
G1 X97.425 Y107.184 E7.34781
G1 X97.94 Y106.442 E7.37785
G1 X98.832 Y105.413 E7.42315
G1 X99.069 Y105.172 E7.43439
G0 F6000 X99.341 Y105.466
G1 F1200 X100.004 Y104.853 E7.46442
G1 X100.719 Y104.302 E7.49444
G1 X101.374 Y103.872 E7.5205
G1 X102.157 Y103.422 E7.55054
G1 X102.977 Y103.042 E7.5806
G1 X103.699 Y102.773 E7.60623
G1 X104.562 Y102.509 E7.63624
G1 X105.446 Y102.322 E7.6663
G1 X106.028 Y102.242 E7.68584
G1 X106.373 Y102.205 E7.69738
G1 X107.334 Y102.148 E7.7294
G1 X108.101 Y102.139 E7.75491
G1 X121.875 Y102.139 E8.21303
G1 X122.719 Y102.15 E8.24111
G1 X123.696 Y102.211 E8.27367
G1 X123.994 Y102.244 E8.28364
G1 X124.886 Y102.383 E8.31366
G1 X126.189 Y102.737 E8.35857
G1 X126.471 Y102.834 E8.36849
G1 X127.311 Y103.165 E8.39852
G1 X128.118 Y103.569 E8.42854
G1 X128.78 Y103.966 E8.45421
G1 X129.525 Y104.477 E8.48426
G1 X130.222 Y105.051 E8.51429
G1 X130.792 Y105.599 E8.54059
G1 X131.405 Y106.263 E8.57065
G1 X131.956 Y106.978 E8.60067
G1 X132.368 Y107.603 E8.62557
G1 X132.819 Y108.385 E8.65559
G1 X133.2 Y109.204 E8.68564
G1 X133.508 Y110.043 E8.71536
G1 X133.766 Y110.908 E8.74538
G1 X134.002 Y112.2 E8.78907
G1 X134.033 Y112.465 E8.79794
G1 X134.101 Y113.5 E8.83244
G1 X134.112 Y114.249 E8.85735
G1 X134.113 Y115.596 E8.90216
G1 X134.102 Y116.458 E8.93083
G1 X134.043 Y117.417 E8.96279
G1 X134.01 Y117.721 E8.97296
G1 X133.873 Y118.613 E9.00297
G1 X133.658 Y119.49 E9.033
G1 X133.399 Y120.271 E9.06037
G1 X133.063 Y121.109 E9.0904
G1 X132.438 Y122.28 E9.13455
G1 X132.286 Y122.525 E9.14414
G1 X131.777 Y123.271 E9.17418
G1 X131.203 Y123.969 E9.20423
G1 X130.642 Y124.551 E9.23112
G1 X129.977 Y125.162 E9.26116
G1 X129.261 Y125.712 E9.29118
G1 X128.626 Y126.128 E9.31643
G1 X127.843 Y126.578 E9.34647
G1 X127.023 Y126.958 E9.37653
G1 X126.326 Y127.219 E9.40128
G1 X125.463 Y127.485 E9.43132
G1 X124.58 Y127.674 E9.46135
G1 X123.967 Y127.759 E9.48194
G1 X123.62 Y127.796 E9.49354
G1 X122.666 Y127.852 E9.52533
G1 X121.899 Y127.861 E9.55084
G1 X107.979 Y127.86 E10.01382
G1 X107.281 Y127.85 E10.03704
G1 X106.304 Y127.789 E10.0696
G1 X106.006 Y127.756 E10.07957
G1 X105.114 Y127.617 E10.1096
G1 X104.237 Y127.4 E10.13965
G1 X103.518 Y127.162 E10.16484
G1 X102.678 Y126.83 E10.19488
G1 X101.871 Y126.425 E10.22491
G1 X101.199 Y126.02 E10.25101
G1 X100.455 Y125.508 E10.28104
G1 X99.759 Y124.932 E10.31109
G1 X99.206 Y124.397 E10.33668
G1 X98.593 Y123.734 E10.36672
G1 X98.041 Y123.019 E10.39676
G1 X97.615 Y122.369 E10.42261
G1 X97.166 Y121.586 E10.45263
G1 X96.788 Y120.765 E10.48269
G1 X96.514 Y120.024 E10.50897
G1 X96.251 Y119.16 E10.53901
G1 X96.004 Y117.841 E10.58364
G1 X95.971 Y117.566 E10.59285
G1 X95.899 Y116.49 E10.62872
G1 X95.887 Y115.546 E10.66012
G1 X95.888 Y114.174 E10.70575
G1 X95.899 Y113.502 E10.72811
G1 X95.957 Y112.574 E10.75903
G1 X95.988 Y112.287 E10.76863
G1 X96.125 Y111.394 E10.79868
G1 X96.34 Y110.517 E10.82871
G1 X96.593 Y109.748 E10.85564
G1 X96.927 Y108.909 E10.88568
G1 X97.334 Y108.103 E10.91571
G1 X97.754 Y107.412 E10.9426
G1 X98.269 Y106.67 E10.97264
G1 X99.134 Y105.675 E11.01649
G1 X99.341 Y105.466 E11.02628
G1 F1500 E7.02628
;MESH:Mizuna_label.stl
G0 F6000 X123.449 Y111.868
G0 X123.828 Y112.106
G0 X124.145 Y112.424
G0 X124.384 Y112.802
G0 X124.53 Y113.225
G0 X124.577 Y113.631
G0 X124.577 Y116.369
G0 X124.53 Y116.775
G0 X124.384 Y117.198
G0 X124.145 Y117.576
G0 X123.828 Y117.894
G0 X123.449 Y118.132
G0 X123.209 Y118.215
G0 X122.619 Y118.325
G0 X122.826 Y117.431
;TYPE:WALL-OUTER
G1 F1500 E11.02628
G1 F1200 X122.569 Y117.459 E11.03488
G1 X107.427 Y117.46 E11.5385
G1 X107.17 Y117.431 E11.5471
G1 X106.924 Y117.342 E11.5558
G1 X106.71 Y117.21 E11.56417
G1 X106.537 Y117.034 E11.57238
G1 X106.398 Y116.819 E11.58089
G1 X106.317 Y116.579 E11.58932
G1 X106.284 Y116.315 E11.59816
G1 X106.284 Y113.681 E11.68577
G1 X106.317 Y113.417 E11.69462
G1 X106.398 Y113.177 E11.70305
G1 X106.537 Y112.962 E11.71156
G1 X106.71 Y112.786 E11.71977
G1 X106.923 Y112.654 E11.7281
G1 X107.17 Y112.568 E11.7368
G1 X107.429 Y112.536 E11.74548
G1 X122.567 Y112.536 E12.24897
G1 X122.826 Y112.568 E12.25765
G1 X123.073 Y112.654 E12.26635
G1 X123.286 Y112.786 E12.27469
G1 X123.462 Y112.962 E12.28297
G1 X123.598 Y113.176 E12.2914
G1 X123.68 Y113.417 E12.29987
G1 X123.712 Y113.681 E12.30871
G1 X123.712 Y116.315 E12.39632
G1 X123.679 Y116.579 E12.40517
G1 X123.598 Y116.821 E12.41366
G1 X123.462 Y117.034 E12.42206
G1 X123.287 Y117.21 E12.43032
G1 X123.072 Y117.342 E12.43871
G1 X122.826 Y117.431 E12.44741
G1 F1500 E8.44741
G0 F6000 X122.619 Y118.325
G0 X107.381 Y118.325
G0 X107.302 Y117.1
;TYPE:SKIN
G1 F1500 E12.44741
G1 F1200 X106.937 Y116.923 E12.4609
G1 X106.726 Y116.659 E12.47214
G1 X106.644 Y116.282 E12.48497
G1 X106.644 Y113.71 E12.57052
G1 X106.726 Y113.333 E12.58335
G1 X106.939 Y113.07 E12.59461
G1 X107.304 Y112.896 E12.60806
G1 X122.687 Y112.896 E13.1197
G1 X123.056 Y113.07 E13.13327
G1 X123.267 Y113.333 E13.14448
G1 X123.352 Y113.711 E13.15737
G1 X123.352 Y116.281 E13.24284
G1 X123.266 Y116.663 E13.25587
G1 X123.06 Y116.922 E13.26688
G1 X122.691 Y117.095 E13.28043
G1 X107.302 Y117.1 E13.79227
G0 F6000 X107.222 Y116.839
G1 F1200 X106.9 Y116.516 E13.80744
G0 F6000 X106.844 Y115.895
G1 F1200 X107.848 Y116.899 E13.85466
G0 F6000 X108.414 Y116.899
G1 F1200 X106.844 Y115.329 E13.92851
G0 F6000 X106.844 Y114.763
G1 F1200 X108.979 Y116.899 E14.02896
G0 F6000 X109.544 Y116.898
G1 F1200 X106.844 Y114.198 E14.15596
G0 F6000 X106.862 Y113.65
G1 F1200 X110.11 Y116.898 E14.30874
G0 F6000 X110.676 Y116.898
G1 F1200 X107.04 Y113.263 E14.47974
G0 F6000 X107.439 Y113.096
G1 F1200 X111.241 Y116.898 E14.65857
G0 F6000 X111.806 Y116.897
G1 F1200 X108.005 Y113.096 E14.83736
G0 F6000 X108.571 Y113.096
G1 F1200 X112.372 Y116.897 E15.01615
G0 F6000 X112.938 Y116.897
G1 F1200 X109.136 Y113.096 E15.19496
G0 F6000 X109.702 Y113.096
G1 F1200 X113.503 Y116.897 E15.37375
G0 F6000 X114.068 Y116.897
G1 F1200 X110.268 Y113.096 E15.55251
G0 F6000 X110.833 Y113.096
G1 F1200 X114.634 Y116.897 E15.7313
G0 F6000 X115.2 Y116.897
G1 F1200 X111.399 Y113.096 E15.91008
G0 F6000 X111.965 Y113.096
G1 F1200 X115.765 Y116.897 E16.08885
G0 F6000 X116.33 Y116.896
G1 F1200 X112.53 Y113.096 E16.26759
G0 F6000 X113.096 Y113.096
G1 F1200 X116.896 Y116.896 E16.44633
G0 F6000 X117.462 Y116.896
G1 F1200 X113.662 Y113.096 E16.62507
G0 F6000 X114.227 Y113.096
G1 F1200 X118.027 Y116.896 E16.80381
G0 F6000 X118.592 Y116.895
G1 F1200 X114.793 Y113.096 E16.9825
G0 F6000 X115.359 Y113.096
G1 F1200 X119.158 Y116.895 E17.1612
G0 F6000 X119.724 Y116.895
G1 F1200 X115.924 Y113.096 E17.33991
G0 F6000 X116.49 Y113.096
G1 F1200 X120.289 Y116.895 E17.51861
G0 F6000 X120.854 Y116.895
G1 F1200 X117.056 Y113.096 E17.69728
G0 F6000 X117.622 Y113.096
G1 F1200 X121.42 Y116.895 E17.87595
G0 F6000 X121.986 Y116.895
G1 F1200 X118.187 Y113.096 E18.05464
G0 F6000 X118.753 Y113.096
G1 F1200 X122.552 Y116.895 E18.23333
G0 F6000 X122.955 Y116.733
G1 F1200 X119.319 Y113.096 E18.40438
G0 F6000 X119.884 Y113.096
G1 F1200 X123.133 Y116.345 E18.55721
G0 F6000 X123.152 Y115.798
G1 F1200 X120.45 Y113.096 E18.6843
G0 F6000 X121.016 Y113.096
G1 F1200 X123.152 Y115.232 E18.78477
G0 F6000 X123.152 Y114.667
G1 F1200 X121.581 Y113.096 E18.85867
G0 F6000 X122.147 Y113.096
G1 F1200 X123.152 Y114.101 E18.90594
G0 F6000 X123.095 Y113.479
G1 F1200 X122.775 Y113.158 E18.92101
G1 F1500 E14.92101
;MESH:NONMESH
G0 F300 X122.775 Y113.158 Z0.4
G0 F6000 X122.619 Y111.675
G0 X99.341 Y105.466
;TIME_ELAPSED:38.116331
;LAYER:1
M106 S85
;TYPE:SKIRT
G1 F1500 E18.92101
G1 F1200 X100.004 Y104.853 E18.95105
G1 X100.719 Y104.302 E18.98107
G1 X101.374 Y103.872 E19.00713
G1 X102.157 Y103.422 E19.03717
G1 X102.977 Y103.042 E19.06723
G1 X103.699 Y102.773 E19.09285
G1 X104.562 Y102.509 E19.12287
G1 X105.446 Y102.322 E19.15292
G1 X106.028 Y102.242 E19.17246
G1 X106.373 Y102.205 E19.184
G1 X107.334 Y102.148 E19.21602
G1 X108.101 Y102.139 E19.24153
G1 X121.875 Y102.139 E19.69966
G1 X122.719 Y102.15 E19.72773
G1 X123.696 Y102.211 E19.76029
G1 X123.994 Y102.244 E19.77026
G1 X124.886 Y102.383 E19.80029
G1 X126.189 Y102.737 E19.8452
G1 X126.471 Y102.834 E19.85512
G1 X127.311 Y103.165 E19.88515
G1 X128.118 Y103.569 E19.91516
G1 X128.78 Y103.966 E19.94084
G1 X129.525 Y104.477 E19.97088
G1 X130.222 Y105.051 E20.00091
G1 X130.792 Y105.599 E20.02721
G1 X131.405 Y106.263 E20.05727
G1 X131.956 Y106.978 E20.08729
G1 X132.368 Y107.603 E20.11219
G1 X132.819 Y108.385 E20.14222
G1 X133.2 Y109.204 E20.17226
G1 X133.508 Y110.043 E20.20199
G1 X133.766 Y110.908 E20.23201
G1 X134.002 Y112.2 E20.27569
G1 X134.033 Y112.465 E20.28457
G1 X134.101 Y113.5 E20.31906
G1 X134.112 Y114.249 E20.34398
G1 X134.113 Y115.596 E20.38878
G1 X134.102 Y116.458 E20.41745
G1 X134.043 Y117.417 E20.44941
G1 X134.01 Y117.721 E20.45958
G1 X133.873 Y118.613 E20.4896
G1 X133.658 Y119.49 E20.51963
G1 X133.399 Y120.271 E20.547
G1 X133.063 Y121.109 E20.57703
G1 X132.438 Y122.28 E20.62117
G1 X132.286 Y122.525 E20.63076
G1 X131.777 Y123.271 E20.6608
G1 X131.203 Y123.969 E20.69086
G1 X130.642 Y124.551 E20.71774
G1 X129.977 Y125.162 E20.74778
G1 X129.261 Y125.712 E20.77781
