;FLAVOR:Marlin
;TIME:4122
;Filament used: 4.22157m
;Layer height: 0.28
;MINX:86.5
;MINY:86.001
;MINZ:0.28
;MAXX:143.5
;MAXY:143.999
;MAXZ:59.92
;TARGET_MACHINE.NAME:Creality Ender-3 v2 Neo
;Generated with Cura_SteamEngine 5.7.0
M140 S60
M105
M190 S60
M104 S200
M105
M109 S200
M82 ;absolute extrusion mode
G92 E0 ;Reset Extruder
G28 ;Home
G1 Z2.0 F3000 ;Move Z Axis up
G1 X10.1 Y20 Z0.28 F5000.0 ;Move to start position
G1 X10.1 Y200.0 Z0.28 F1500.0 E15 ;Draw the first line
G1 X10.4 Y200.0 Z0.28 F5000.0 ;Move to side a little
G1 X10.4 Y20 Z0.28 F1500.0 E30 ;Draw the second line
G92 E0 ;Reset Extruder
G1 Z2.0 F3000 ;Move Z Axis up
G92 E0
G92 E0
G1 F1500 E-4
;LAYER_COUNT:214
;LAYER:0
M107
G0 F6000 X89.956 Y89.014 Z0.28
;TYPE:SKIRT
G1 F1500 E0
G1 F1200 X90.692 Y88.377 E0.04532
G1 X91.424 Y87.847 E0.08741
G1 X92.321 Y87.312 E0.13604
G1 X93.199 Y86.891 E0.18138
G1 X94.112 Y86.549 E0.22678
G1 X95.049 Y86.29 E0.27204
G1 X96.016 Y86.112 E0.31783
G1 X97.155 Y86.016 E0.37105
G1 X97.812 Y86.001 E0.40165
G1 X116.804 Y86.001 E1.286
G1 X117.687 Y86.014 E1.32712
G1 X118.659 Y86.073 E1.37246
G1 X119.622 Y86.219 E1.41782
G1 X120.569 Y86.45 E1.46321
G1 X121.49 Y86.763 E1.5085
G1 X122.382 Y87.157 E1.55391
G1 X123.235 Y87.628 E1.59928
G1 X124.041 Y88.172 E1.64456
G1 X124.798 Y88.785 E1.68992
G1 X125.49 Y89.456 E1.7348
G1 X125.949 Y89.974 E1.76703
G1 X127.691 Y92.066 E1.89379
G1 X129.332 Y93.927 E2.00932
G1 X131.087 Y95.808 E2.12911
G1 X132.802 Y97.546 E2.24281
G1 X134.669 Y99.333 E2.36315
G1 X136.528 Y101.015 E2.47989
G1 X138.346 Y102.569 E2.59125
G1 X139.544 Y103.566 E2.66383
G1 X140.264 Y104.223 E2.70921
G1 X140.899 Y104.914 E2.75291
G1 X141.513 Y105.714 E2.79987
G1 X142.017 Y106.507 E2.84362
G1 X142.48 Y107.403 E2.89058
G1 X142.848 Y108.304 E2.9359
G1 X143.135 Y109.235 E2.98127
G1 X143.338 Y110.187 E3.02659
G1 X143.451 Y111.083 E3.06864
G1 X143.485 Y111.674 E3.09621
G1 X143.5 Y112.331 E3.12681
G1 X143.499 Y132.399 E4.06126
G1 X143.488 Y133.162 E4.09679
G1 X143.431 Y134.135 E4.14218
G1 X143.286 Y135.098 E4.18752
G1 X143.057 Y136.044 E4.23285
G1 X142.746 Y136.968 E4.27824
G1 X142.354 Y137.859 E4.32357
G1 X141.886 Y138.711 E4.36883
G1 X141.364 Y139.492 E4.41257
G1 X140.731 Y140.277 E4.45953
G1 X140.106 Y140.928 E4.50155
G1 X139.317 Y141.616 E4.5503
G1 X138.557 Y142.166 E4.59398
G1 X137.69 Y142.683 E4.64099
G1 X136.812 Y143.105 E4.68635
G1 X135.901 Y143.447 E4.73166
G1 X134.962 Y143.708 E4.77704
G1 X133.996 Y143.886 E4.82278
G1 X132.845 Y143.984 E4.87657
G1 X132.17 Y143.999 E4.908
G1 X98.064 Y143.998 E6.49612
G1 X97.331 Y143.987 E6.53026
G1 X96.359 Y143.93 E6.5756
G1 X95.396 Y143.784 E6.62095
G1 X94.45 Y143.555 E6.66627
G1 X93.526 Y143.243 E6.71168
G1 X92.636 Y142.851 E6.75697
G1 X91.813 Y142.4 E6.80067
G1 X90.974 Y141.839 E6.84766
G1 X90.27 Y141.273 E6.88973
G1 X89.517 Y140.548 E6.9384
G1 X88.88 Y139.812 E6.98372
G1 X88.35 Y139.081 E7.02577
G1 X87.814 Y138.184 E7.07442
G1 X87.392 Y137.306 E7.11978
G1 X87.05 Y136.394 E7.16514
G1 X86.79 Y135.456 E7.21046
G1 X86.612 Y134.487 E7.25634
G1 X86.514 Y133.308 E7.31143
G1 X86.5 Y132.657 E7.34175
G1 X86.501 Y97.526 E8.97759
G1 X86.512 Y96.826 E9.01019
G1 X86.57 Y95.853 E9.05558
G1 X86.716 Y94.89 E9.10093
G1 X86.946 Y93.944 E9.14627
G1 X87.259 Y93.021 E9.19165
G1 X87.651 Y92.131 E9.23693
G1 X88.121 Y91.278 E9.28228
G1 X88.664 Y90.47 E9.32761
G1 X89.231 Y89.766 E9.3697
G1 X89.956 Y89.014 E9.41834
G0 F6000 X90.218 Y89.316
G1 F1200 X90.927 Y88.701 E9.46205
G1 X91.659 Y88.171 E9.50413
G1 X92.495 Y87.672 E9.54946
G1 X93.34 Y87.265 E9.59314
G1 X94.219 Y86.934 E9.63687
G1 X95.122 Y86.683 E9.68051
G1 X96.05 Y86.511 E9.72446
G1 X97.189 Y86.415 E9.77769
G1 X97.821 Y86.401 E9.80712
G1 X116.798 Y86.401 E10.69077
G1 X117.663 Y86.413 E10.73105
G1 X118.6 Y86.469 E10.77476
G1 X119.528 Y86.608 E10.81845
G1 X120.441 Y86.829 E10.8622
G1 X121.329 Y87.129 E10.90584
G1 X122.189 Y87.507 E10.94958
G1 X123.012 Y87.96 E10.99333
G1 X123.79 Y88.483 E11.03698
G1 X124.52 Y89.073 E11.08068
G1 X125.191 Y89.722 E11.12415
G1 X125.642 Y90.23 E11.15578
G1 X127.391 Y92.331 E11.28308
G1 X129.032 Y94.192 E11.39861
G1 X130.802 Y96.089 E11.51942
G1 X132.525 Y97.835 E11.63364
G1 X134.392 Y99.622 E11.75398
G1 X136.268 Y101.319 E11.87178
G1 X138.09 Y102.877 E11.9834
G1 X139.275 Y103.862 E12.05516
G1 X139.969 Y104.494 E12.09886
G1 X140.604 Y105.185 E12.14256
G1 X141.175 Y105.929 E12.18623
G1 X141.679 Y106.722 E12.22999
G1 X142.11 Y107.555 E12.27366
G1 X142.466 Y108.423 E12.31734
G1 X142.744 Y109.319 E12.36103
G1 X142.941 Y110.237 E12.40475
G1 X143.054 Y111.133 E12.4468
G1 X143.085 Y111.683 E12.47245
G1 X143.1 Y112.331 E12.50263
G1 X143.099 Y132.394 E13.43685
G1 X143.089 Y133.139 E13.47154
G1 X143.035 Y134.076 E13.51524
G1 X142.897 Y135.005 E13.55898
G1 X142.678 Y135.917 E13.60265
G1 X142.38 Y136.807 E13.64635
G1 X142.003 Y137.667 E13.69008
G1 X141.553 Y138.489 E13.73371
G1 X141.031 Y139.27 E13.77746
G1 X140.442 Y140 E13.82113
G1 X139.817 Y140.651 E13.86315
G1 X139.082 Y141.292 E13.90857
G1 X138.322 Y141.842 E13.95225
G1 X137.516 Y142.323 E13.99596
G1 X136.671 Y142.731 E14.03965
G1 X135.793 Y143.062 E14.08334
G1 X134.889 Y143.315 E14.12705
G1 X133.962 Y143.487 E14.17095
G1 X132.811 Y143.585 E14.22474
G1 X132.17 Y143.599 E14.2546
G1 X98.07 Y143.598 E15.84244
G1 X97.354 Y143.588 E15.87578
G1 X96.418 Y143.534 E15.91944
G1 X95.489 Y143.395 E15.96318
G1 X94.577 Y143.176 E16.00685
G1 X93.687 Y142.877 E16.05057
G1 X92.828 Y142.5 E16.09425
G1 X92.005 Y142.049 E16.13795
G1 X91.225 Y141.527 E16.18165
G1 X90.521 Y140.961 E16.22371
G1 X89.819 Y140.286 E16.26906
G1 X89.204 Y139.577 E16.31277
G1 X88.674 Y138.846 E16.35481
G1 X88.174 Y138.01 E16.40017
G1 X87.766 Y137.165 E16.44386
G1 X87.435 Y136.287 E16.48755
G1 X87.183 Y135.383 E16.53125
G1 X87.011 Y134.454 E16.57525
G1 X86.913 Y133.275 E16.63033
G1 X86.9 Y132.657 E16.65912
G1 X86.901 Y97.532 E18.29468
G1 X86.911 Y96.849 E18.32649
G1 X86.966 Y95.912 E18.3702
G1 X87.105 Y94.984 E18.41389
G1 X87.325 Y94.072 E18.45757
G1 X87.625 Y93.182 E18.50131
G1 X88.002 Y92.323 E18.54499
G1 X88.453 Y91.501 E18.58865
G1 X88.976 Y90.721 E18.63238
G1 X89.543 Y90.017 E18.67447
G1 X90.218 Y89.316 E18.71978
G0 F6000 X90.481 Y89.618
G1 F1200 X91.162 Y89.025 E18.76183
G1 X91.894 Y88.495 E18.80391
G1 X92.669 Y88.032 E18.84595
G1 X93.482 Y87.639 E18.88799
G1 X94.327 Y87.319 E18.93007
G1 X95.196 Y87.076 E18.97209
G1 X96.084 Y86.91 E19.01415
G1 X97.223 Y86.814 E19.06738
G1 X97.83 Y86.801 E19.09565
G1 X116.793 Y86.801 E19.97864
G1 X117.64 Y86.812 E20.01809
G1 X118.542 Y86.865 E20.06016
G1 X119.435 Y86.997 E20.10219
G1 X120.313 Y87.208 E20.14424
G1 X121.169 Y87.496 E20.18629
G1 X121.997 Y87.858 E20.22837
G1 X122.789 Y88.292 E20.27043
G1 X123.539 Y88.795 E20.31248
G1 X124.242 Y89.361 E20.3545
G1 X124.892 Y89.988 E20.39656
G1 X125.335 Y90.486 E20.42759
G1 X127.091 Y92.596 E20.55542
G1 X128.732 Y94.457 E20.67095
G1 X130.517 Y96.37 E20.79278
G1 X132.248 Y98.124 E20.90753
G1 X134.115 Y99.911 E21.02787
G1 X136.008 Y101.623 E21.14672
G1 X137.834 Y103.185 E21.25861
G1 X139.006 Y104.158 E21.32954
G1 X139.675 Y104.765 E21.3716
G1 X140.287 Y105.429 E21.41365
G1 X140.838 Y106.144 E21.45568
G1 X141.324 Y106.906 E21.49777
G1 X141.74 Y107.707 E21.53979
G1 X142.084 Y108.542 E21.58185
G1 X142.353 Y109.404 E21.62389
G1 X142.544 Y110.287 E21.66596
G1 X142.657 Y111.183 E21.70801
G1 X142.685 Y111.692 E21.73175
G1 X142.7 Y112.331 E21.76151
G1 X142.699 Y132.389 E22.6955
G1 X142.69 Y133.116 E22.72935
G1 X142.639 Y134.018 E22.77142
G1 X142.508 Y134.912 E22.81349
G1 X142.299 Y135.79 E22.85552
G1 X142.013 Y136.647 E22.89759
G1 X141.652 Y137.475 E22.93965
G1 X141.22 Y138.267 E22.98166
G1 X140.719 Y139.019 E23.02373
G1 X140.153 Y139.723 E23.06579
G1 X139.528 Y140.374 E23.10781
G1 X138.847 Y140.968 E23.14989
G1 X138.116 Y141.499 E23.19196
G1 X137.342 Y141.963 E23.23398
G1 X136.529 Y142.357 E23.27605
G1 X135.685 Y142.677 E23.31808
G1 X134.815 Y142.922 E23.36017
G1 X133.928 Y143.088 E23.40219
G1 X132.777 Y143.186 E23.45598
G1 X132.17 Y143.199 E23.48425
G1 X98.075 Y143.198 E25.07186
G1 X97.377 Y143.189 E25.10436
G1 X96.476 Y143.138 E25.14638
G1 X95.582 Y143.006 E25.18846
G1 X94.704 Y142.797 E25.23049
G1 X93.847 Y142.51 E25.27257
G1 X93.02 Y142.149 E25.31459
G1 X92.227 Y141.716 E25.35666
G1 X91.476 Y141.215 E25.3987
G1 X90.772 Y140.649 E25.44076
G1 X90.121 Y140.023 E25.48281
G1 X89.528 Y139.342 E25.52486
G1 X88.998 Y138.611 E25.5669
G1 X88.534 Y137.836 E25.60896
G1 X88.14 Y137.023 E25.65103
G1 X87.82 Y136.179 E25.69306
G1 X87.576 Y135.309 E25.73514
G1 X87.41 Y134.421 E25.7772
G1 X87.313 Y133.266 E25.83117
G1 X87.3 Y132.657 E25.85954
G1 X87.301 Y97.537 E27.49487
G1 X87.31 Y96.872 E27.52584
G1 X87.362 Y95.97 E27.56791
G1 X87.494 Y95.077 E27.60994
G1 X87.704 Y94.199 E27.65198
G1 X87.991 Y93.342 E27.69406
G1 X88.353 Y92.515 E27.7361
G1 X88.786 Y91.723 E27.77813
G1 X89.288 Y90.972 E27.82019
G1 X89.855 Y90.268 E27.86228
G1 X90.481 Y89.618 E27.90431
G1 F1500 E23.90431
;MESH:Edge_thin.stl
G0 F6000 X96.847 Y133.652
G0 X132.03 Y133.664
G0 X132.3 Y132.796
;TYPE:WALL-OUTER
G1 F1500 E27.90431
G1 F1200 X97.7 Y132.796 E29.51543
G1 X97.7 Y97.2 E31.17292
G1 X117.3 Y97.2 E32.08558
G1 X117.3 Y112.061 E32.77757
G1 X117.388 Y112.167 E32.78399
G1 X117.484 Y112.2 E32.78872
G1 X132.3 Y112.2 E33.47861
G1 X132.3 Y132.796 E34.43765
G0 F6000 X131.94 Y132.436
;TYPE:SKIN
G1 F1200 X98.061 Y132.435 E36.01519
G1 X98.06 Y97.56 E37.63912
G1 X116.94 Y97.56 E38.51825
G1 X116.94 Y112.04 E39.1925
G1 X117.012 Y112.281 E39.20421
G1 X117.157 Y112.443 E39.21434
G1 X117.428 Y112.552 E39.22794
G1 X131.94 Y112.56 E39.90368
G1 X131.94 Y132.436 E40.82919
G1 F1500 E36.82919
G0 F6000 X133.165 Y132.549
G0 X133.153 Y111.348
G0 X131.428 Y111.336
G0 X131.428 Y112.76
G1 F1500 E40.82919
G1 F1200 X131.74 Y113.073 E40.84977
G0 F6000 X131.74 Y113.638
G1 F1200 X130.862 Y112.76 E40.90759
G0 F6000 X130.296 Y112.76
G1 F1200 X131.74 Y114.204 E41.00267
G0 F6000 X131.74 Y114.77
G1 F1200 X129.731 Y112.76 E41.135
G0 F6000 X129.164 Y112.759
G1 F1200 X131.74 Y115.335 E41.30464
G0 F6000 X131.74 Y115.901
G1 F1200 X128.599 Y112.759 E41.51151
G0 F6000 X128.033 Y112.759
G1 F1200 X131.74 Y116.467 E41.75566
G0 F6000 X131.74 Y117.033
G1 F1200 X127.467 Y112.759 E42.03707
G0 F6000 X126.901 Y112.759
G1 F1200 X131.74 Y117.598 E42.35573
G0 F6000 X131.74 Y118.164
G1 F1200 X126.335 Y112.759 E42.71166
G0 F6000 X125.77 Y112.759
G1 F1200 X131.74 Y118.73 E43.10483
G0 F6000 X131.74 Y119.295
G1 F1200 X125.203 Y112.758 E43.5353
G0 F6000 X124.637 Y112.758
G1 F1200 X131.74 Y119.861 E44.00304
G0 F6000 X131.74 Y120.427
G1 F1200 X124.072 Y112.758 E44.50803
G0 F6000 X123.505 Y112.757
G1 F1200 X131.74 Y120.992 E45.05032
G0 F6000 X131.74 Y121.558
G1 F1200 X122.94 Y112.757 E45.62984
G0 F6000 X122.374 Y112.757
G1 F1200 X131.74 Y122.124 E46.24664
G0 F6000 X131.74 Y122.689
G1 F1200 X121.808 Y112.757 E46.90068
G0 F6000 X121.242 Y112.757
G1 F1200 X131.74 Y123.255 E47.59199
G0 F6000 X131.74 Y123.821
G1 F1200 X120.676 Y112.757 E48.32058
G0 F6000 X120.111 Y112.757
G1 F1200 X131.74 Y124.386 E49.08637
G0 F6000 X131.74 Y124.952
G1 F1200 X119.545 Y112.757 E49.88943
G0 F6000 X118.978 Y112.756
G1 F1200 X131.74 Y125.518 E50.72983
G0 F6000 X131.74 Y126.084
G1 F1200 X118.413 Y112.756 E51.60747
G0 F6000 X117.847 Y112.756
G1 F1200 X131.74 Y126.649 E52.52234
G0 F6000 X131.74 Y127.215
G1 F1200 X117.208 Y112.682 E53.47933
G0 F6000 X116.802 Y112.277
G1 F1200 X102.285 Y97.76 E54.4353
G0 F6000 X101.719 Y97.76
G1 F1200 X131.74 Y127.781 E56.41224
G0 F6000 X131.74 Y128.346
G1 F1200 X101.154 Y97.76 E58.42638
G0 F6000 X100.588 Y97.76
G1 F1200 X131.74 Y128.912 E60.47779
G0 F6000 X131.74 Y129.478
G1 F1200 X100.022 Y97.76 E62.56648
G0 F6000 X99.457 Y97.76
G1 F1200 X131.74 Y130.043 E64.69237
G0 F6000 X131.74 Y130.609
G1 F1200 X98.891 Y97.76 E66.85553
G0 F6000 X98.325 Y97.76
G1 F1200 X131.74 Y131.175 E69.05596
G0 F6000 X131.74 Y131.74
G1 F1200 X98.26 Y98.26 E71.26068
G0 F6000 X98.26 Y98.826
G1 F1200 X131.67 Y132.235 E73.46075
G0 F6000 X131.104 Y132.235
G1 F1200 X98.26 Y99.392 E75.62355
G0 F6000 X98.26 Y99.957
G1 F1200 X130.538 Y132.235 E77.74911
G0 F6000 X129.973 Y132.235
G1 F1200 X98.26 Y100.523 E79.83744
G0 F6000 X98.26 Y101.089
G1 F1200 X129.407 Y132.235 E81.88849
G0 F6000 X128.841 Y132.235
G1 F1200 X98.26 Y101.654 E83.9023
G0 F6000 X98.26 Y102.22
G1 F1200 X128.276 Y132.235 E85.87887
G0 F6000 X127.71 Y132.235
G1 F1200 X98.26 Y102.786 E87.81817
G0 F6000 X98.26 Y103.351
G1 F1200 X127.144 Y132.235 E89.72023
G0 F6000 X126.578 Y132.235
G1 F1200 X98.26 Y103.917 E91.58502
G0 F6000 X98.26 Y104.483
G1 F1200 X126.013 Y132.235 E93.41257
G0 F6000 X125.447 Y132.235
G1 F1200 X98.26 Y105.048 E95.20288
G0 F6000 X98.26 Y105.614
G1 F1200 X124.881 Y132.235 E96.95592
G0 F6000 X124.316 Y132.235
G1 F1200 X98.26 Y106.18 E98.67172
G0 F6000 X98.26 Y106.746
G1 F1200 X123.75 Y132.235 E100.35024
G0 F6000 X123.184 Y132.235
G1 F1200 X98.26 Y107.311 E101.99153
G0 F6000 X98.26 Y107.877
G1 F1200 X122.619 Y132.235 E103.59558
G0 F6000 X122.053 Y132.235
G1 F1200 X98.26 Y108.443 E105.16236
G0 F6000 X98.26 Y109.008
G1 F1200 X121.487 Y132.235 E106.69189
G0 F6000 X120.922 Y132.235
G1 F1200 X98.26 Y109.574 E108.18419
G0 F6000 X98.26 Y110.14
G1 F1200 X120.356 Y132.235 E109.63922
G0 F6000 X119.79 Y132.235
G1 F1200 X98.26 Y110.705 E111.05701
G0 F6000 X98.26 Y111.271
G1 F1200 X119.225 Y132.235 E112.43755
G0 F6000 X118.659 Y132.235
G1 F1200 X98.26 Y111.837 E113.78083
G0 F6000 X98.26 Y112.402
G1 F1200 X118.093 Y132.235 E115.08687
G0 F6000 X117.528 Y132.235
G1 F1200 X98.26 Y112.968 E116.35566
G0 F6000 X98.26 Y113.534
G1 F1200 X116.962 Y132.235 E117.58719
G0 F6000 X116.396 Y132.235
G1 F1200 X98.26 Y114.099 E118.78148
G0 F6000 X98.26 Y114.665
G1 F1200 X115.83 Y132.235 E119.93849
G0 F6000 X115.265 Y132.235
G1 F1200 X98.26 Y115.231 E121.05827
G0 F6000 X98.26 Y115.797
G1 F1200 X114.698 Y132.235 E122.14074
G0 F6000 X114.133 Y132.235
G1 F1200 X98.26 Y116.362 E123.186
G0 F6000 X98.26 Y116.928
G1 F1200 X113.567 Y132.235 E124.19399
G0 F6000 X113.001 Y132.235
G1 F1200 X98.26 Y117.494 E125.16471
G0 F6000 X98.26 Y118.059
G1 F1200 X112.436 Y132.235 E126.09823
G0 F6000 X111.87 Y132.235
G1 F1200 X98.26 Y118.625 E126.99447
G0 F6000 X98.26 Y119.191
G1 F1200 X111.304 Y132.235 E127.85344
G0 F6000 X110.739 Y132.235
G1 F1200 X98.26 Y119.756 E128.6752
G0 F6000 X98.26 Y120.322
G1 F1200 X110.173 Y132.235 E129.45969
G0 F6000 X109.607 Y132.235
G1 F1200 X98.26 Y120.888 E130.20691
G0 F6000 X98.26 Y121.453
G1 F1200 X109.042 Y132.235 E130.91693
G0 F6000 X108.476 Y132.235
G1 F1200 X98.26 Y122.019 E131.58967
G0 F6000 X98.26 Y122.585
G1 F1200 X107.91 Y132.235 E132.22514
G0 F6000 X107.344 Y132.235
G1 F1200 X98.26 Y123.15 E132.82337
G0 F6000 X98.26 Y123.716
G1 F1200 X106.779 Y132.235 E133.38436
G0 F6000 X106.213 Y132.235
G1 F1200 X98.26 Y124.282 E133.90808
G0 F6000 X98.26 Y124.847
G1 F1200 X105.647 Y132.235 E134.39455
G0 F6000 X105.082 Y132.235
G1 F1200 X98.26 Y125.413 E134.8438
G0 F6000 X98.26 Y125.979
G1 F1200 X104.516 Y132.235 E135.25576
G0 F6000 X103.95 Y132.235
G1 F1200 X98.26 Y126.545 E135.63046
G0 F6000 X98.26 Y127.11
G1 F1200 X103.385 Y132.235 E135.96795
G0 F6000 X102.819 Y132.235
G1 F1200 X98.26 Y127.676 E136.26817
G0 F6000 X98.26 Y128.242
G1 F1200 X102.253 Y132.235 E136.53111
G0 F6000 X101.688 Y132.235
G1 F1200 X98.26 Y128.807 E136.75685
G0 F6000 X98.26 Y129.373
G1 F1200 X101.122 Y132.235 E136.94532
G0 F6000 X100.556 Y132.235
G1 F1200 X98.26 Y129.939 E137.09652
G0 F6000 X98.26 Y130.504
G1 F1200 X99.991 Y132.235 E137.21051
G0 F6000 X99.425 Y132.235
G1 F1200 X98.26 Y131.07 E137.28722
G0 F6000 X98.26 Y131.636
