;FLAVOR:Marlin
;TIME:2422
;Filament used: 2.41111m
;Layer height: 0.28
;MINX:93.477
;MINY:93.518
;MINZ:0.28
;MAXX:161.29
;MAXY:161.812
;MAXZ:29.96
;TARGET_MACHINE.NAME:Creality Ender-3 v2 Neo
;Generated with Cura_SteamEngine 5.7.0
M140 S60
M105
M190 S60
M104 S200
M105
M109 S200
M82 ;absolute extrusion mode
G92 E0 ;Reset Extruder
G28 ;Home
G1 Z2.0 F3000 ;Move Z Axis up
G1 X10.1 Y20 Z0.28 F5000.0 ;Move to start position
G1 X10.1 Y200.0 Z0.28 F1500.0 E15 ;Draw the first line
G1 X10.4 Y200.0 Z0.28 F5000.0 ;Move to side a little
G1 X10.4 Y20 Z0.28 F1500.0 E30 ;Draw the second line
G92 E0 ;Reset Extruder
G1 Z2.0 F3000 ;Move Z Axis up
G92 E0
G92 E0
G1 F1500 E-4
;LAYER_COUNT:107
;LAYER:0
M107
G0 F6000 X126.723 Y97.639 Z0.28
;TYPE:SKIRT
G1 F1500 E0
G1 F1200 X127.365 Y96.907 E0.04534
G1 X128.017 Y96.282 E0.08739
G1 X128.832 Y95.629 E0.13602
G1 X129.584 Y95.128 E0.1781
G1 X130.503 Y94.628 E0.22681
G1 X131.398 Y94.242 E0.2722
G1 X132.321 Y93.939 E0.31743
G1 X133.268 Y93.716 E0.36274
G1 X134.162 Y93.586 E0.4048
G1 X134.995 Y93.531 E0.44368
G1 X135.602 Y93.518 E0.47195
G1 X149.594 Y93.518 E1.12347
G1 X150.474 Y93.531 E1.16445
G1 X151.446 Y93.59 E1.2098
G1 X152.409 Y93.736 E1.25515
G1 X153.356 Y93.967 E1.30054
G1 X154.244 Y94.267 E1.34418
G1 X155.136 Y94.657 E1.38952
G1 X156.019 Y95.144 E1.43647
G1 X156.77 Y95.646 E1.47853
G1 X157.585 Y96.304 E1.52731
G1 X158.283 Y96.982 E1.57262
G1 X158.919 Y97.719 E1.61795
G1 X159.489 Y98.509 E1.66331
G1 X159.951 Y99.285 E1.70536
G1 X160.405 Y100.227 E1.75406
G1 X160.734 Y101.105 E1.79771
G1 X161.003 Y102.077 E1.84468
G1 X161.18 Y103.043 E1.89041
G1 X161.275 Y104.173 E1.94321
G1 X161.29 Y104.848 E1.97465
G1 X161.289 Y115.256 E2.45929
G1 X161.276 Y116.041 E2.49585
G1 X161.224 Y117.383 E2.55838
G1 X161.105 Y119.663 E2.66469
G1 X161.036 Y120.445 E2.70125
G1 X160.845 Y121.922 E2.7706
G1 X160.511 Y124.131 E2.87462
G1 X160.361 Y124.918 E2.91193
G1 X160.089 Y126.101 E2.96845
G1 X159.581 Y128.128 E3.06576
G1 X159.438 Y128.661 E3.09145
G1 X159.254 Y129.272 E3.12117
G1 X158.773 Y130.703 E3.19146
G1 X158.013 Y132.805 E3.29554
G1 X157.718 Y133.534 E3.33216
G1 X157.115 Y134.87 E3.40041
G1 X156.143 Y136.905 E3.50543
G1 X155.777 Y137.604 E3.54217
G1 X155.034 Y138.895 E3.61153
G1 X153.877 Y140.811 E3.71575
G1 X153.444 Y141.47 E3.75247
G1 X152.584 Y142.676 E3.82144
G1 X151.256 Y144.455 E3.92481
G1 X150.784 Y145.041 E3.95985
G1 X149.748 Y146.228 E4.03321
G1 X148.258 Y147.857 E4.13601
G1 X147.716 Y148.408 E4.172
G1 X146.609 Y149.452 E4.24285
G1 X144.963 Y150.932 E4.34592
G1 X144.365 Y151.432 E4.38222
G1 X143.217 Y152.319 E4.44977
G1 X141.683 Y153.455 E4.53865
G1 X141.268 Y153.752 E4.56242
G1 X140.737 Y154.108 E4.59219
G1 X139.473 Y154.899 E4.66162
G1 X137.542 Y156.046 E4.7662
G1 X136.85 Y156.423 E4.80289
G1 X135.538 Y157.076 E4.87113
G1 X134.047 Y157.78 E4.94791
G1 X133.358 Y158.093 E4.98315
G1 X132.764 Y158.341 E5.01312
G1 X131.392 Y158.862 E5.08146
G1 X129.253 Y159.619 E5.18711
G1 X128.499 Y159.853 E5.22388
G1 X127.093 Y160.232 E5.29168
G1 X124.915 Y160.772 E5.39617
G1 X124.15 Y160.931 E5.43255
G1 X122.642 Y161.183 E5.50374
G1 X120.453 Y161.5 E5.60674
G1 X119.676 Y161.582 E5.64312
G1 X118.22 Y161.683 E5.71108
G1 X116.411 Y161.77 E5.79541
G1 X115.094 Y161.809 E5.85676
G1 X105.176 Y161.812 E6.31859
G1 X104.293 Y161.799 E6.35971
G1 X103.321 Y161.74 E6.40505
G1 X102.358 Y161.594 E6.4504
G1 X101.411 Y161.363 E6.49579
G1 X100.523 Y161.063 E6.53944
G1 X99.631 Y160.673 E6.58477
G1 X98.748 Y160.186 E6.63172
G1 X97.997 Y159.684 E6.67379
G1 X97.182 Y159.026 E6.72256
G1 X96.484 Y158.348 E6.76787
G1 X95.848 Y157.611 E6.8132
G1 X95.278 Y156.821 E6.85856
G1 X94.816 Y156.045 E6.90062
G1 X94.362 Y155.103 E6.94931
G1 X94.033 Y154.225 E6.99297
G1 X93.764 Y153.252 E7.03997
G1 X93.587 Y152.285 E7.08575
G1 X93.491 Y151.116 E7.14037
G1 X93.477 Y150.465 E7.17069
G1 X93.478 Y136.362 E7.82738
G1 X93.49 Y135.625 E7.8617
G1 X93.549 Y134.653 E7.90705
G1 X93.695 Y133.69 E7.9524
G1 X93.926 Y132.743 E7.99779
G1 X94.239 Y131.822 E8.04309
G1 X94.633 Y130.93 E8.08849
G1 X95.104 Y130.077 E8.13386
G1 X95.648 Y129.271 E8.17914
G1 X96.262 Y128.514 E8.22453
G1 X96.94 Y127.816 E8.26984
G1 X97.676 Y127.18 E8.31513
G1 X98.427 Y126.637 E8.35829
G1 X100.231 Y125.446 E8.45894
G1 X102.291 Y124.008 E8.57593
G1 X104.328 Y122.501 E8.69391
G1 X106.294 Y120.959 E8.81026
G1 X108.255 Y119.329 E8.929
G1 X110.117 Y117.687 E9.04459
G1 X111.973 Y115.958 E9.16271
G1 X113.768 Y114.188 E9.28009
G1 X115.504 Y112.375 E9.39697
G1 X117.207 Y110.494 E9.51512
G1 X118.848 Y108.574 E9.63273
G1 X120.418 Y106.629 E9.74912
G1 X121.924 Y104.651 E9.86489
G1 X123.393 Y102.604 E9.98221
G1 X124.823 Y100.488 E10.10113
G1 X125.877 Y98.832 E10.19253
G1 X126.148 Y98.424 E10.21534
G1 X126.723 Y97.639 E10.26065
G0 F6000 X127.024 Y97.902
G1 F1200 X127.642 Y97.196 E10.30434
G1 X128.294 Y96.571 E10.34639
G1 X129.054 Y95.962 E10.39174
G1 X129.806 Y95.461 E10.43382
G1 X130.662 Y94.995 E10.4792
G1 X131.523 Y94.622 E10.52289
G1 X132.413 Y94.328 E10.56654
G1 X133.326 Y94.112 E10.61022
G1 X134.22 Y93.982 E10.65229
G1 X135.004 Y93.931 E10.68887
G1 X135.611 Y93.918 E10.71714
G1 X149.588 Y93.918 E11.36797
G1 X150.45 Y93.93 E11.40811
G1 X151.387 Y93.986 E11.45182
G1 X152.315 Y94.125 E11.49552
G1 X153.228 Y94.346 E11.53926
G1 X154.084 Y94.634 E11.58131
G1 X154.976 Y95.024 E11.62664
G1 X155.797 Y95.477 E11.67031
G1 X156.548 Y95.979 E11.71237
G1 X157.307 Y96.591 E11.75777
G1 X157.981 Y97.244 E11.80147
G1 X158.595 Y97.953 E11.84514
G1 X159.145 Y98.714 E11.88886
G1 X159.607 Y99.49 E11.93091
G1 X160.03 Y100.367 E11.97625
G1 X160.359 Y101.245 E12.01991
G1 X160.61 Y102.15 E12.06364
G1 X160.781 Y103.077 E12.10754
G1 X160.876 Y104.207 E12.16034
G1 X160.89 Y104.848 E12.1902
G1 X160.889 Y115.249 E12.67451
G1 X160.876 Y116.026 E12.71069
G1 X160.825 Y117.362 E12.77295
G1 X160.707 Y119.628 E12.87861
G1 X160.639 Y120.394 E12.91442
G1 X160.45 Y121.862 E12.98334
G1 X160.118 Y124.056 E13.08666
G1 X159.971 Y124.828 E13.12325
G1 X159.701 Y126.004 E13.17944
G1 X159.195 Y128.024 E13.2764
G1 X159.055 Y128.546 E13.30157
G1 X158.875 Y129.145 E13.33069
G1 X158.397 Y130.567 E13.40055
G1 X157.642 Y132.655 E13.50394
G1 X157.353 Y133.37 E13.53985
G1 X156.754 Y134.698 E13.60768
G1 X155.788 Y136.72 E13.71203
G1 X155.43 Y137.405 E13.74802
G1 X154.692 Y138.688 E13.81694
G1 X153.543 Y140.591 E13.92045
G1 X153.118 Y141.238 E13.9565
G1 X152.263 Y142.437 E14.02507
G1 X150.944 Y144.204 E14.12774
G1 X150.472 Y144.79 E14.16278
G1 X149.453 Y145.958 E14.23495
G1 X147.973 Y147.577 E14.33709
G1 X147.442 Y148.117 E14.37236
G1 X146.341 Y149.155 E14.44282
G1 X144.707 Y150.625 E14.54516
G1 X144.12 Y151.115 E14.58077
G1 X142.972 Y152.002 E14.64832
G1 X141.45 Y153.13 E14.73653
G1 X141.045 Y153.42 E14.75973
G1 X140.525 Y153.769 E14.78889
G1 X139.269 Y154.555 E14.85788
G1 X137.351 Y155.695 E14.96178
G1 X136.672 Y156.065 E14.99778
G1 X135.367 Y156.714 E15.06565
G1 X133.882 Y157.416 E15.14213
G1 X133.204 Y157.724 E15.17681
G1 X132.622 Y157.967 E15.20618
G1 X131.259 Y158.485 E15.27407
G1 X129.134 Y159.237 E15.37903
G1 X128.395 Y159.467 E15.41507
G1 X126.997 Y159.844 E15.48249
G1 X124.833 Y160.38 E15.5863
G1 X124.084 Y160.536 E15.62193
G1 X122.585 Y160.787 E15.6927
G1 X120.411 Y161.102 E15.79499
G1 X119.648 Y161.183 E15.83072
G1 X118.201 Y161.283 E15.89826
G1 X116.399 Y161.37 E15.98226
G1 X115.094 Y161.409 E16.04306
G1 X105.182 Y161.412 E16.5046
G1 X104.317 Y161.4 E16.54488
G1 X103.38 Y161.344 E16.58859
G1 X102.452 Y161.205 E16.63228
G1 X101.539 Y160.984 E16.67603
G1 X100.683 Y160.696 E16.71808
G1 X99.791 Y160.306 E16.76341
G1 X98.97 Y159.853 E16.80707
G1 X98.219 Y159.351 E16.84914
G1 X97.46 Y158.739 E16.89454
G1 X96.786 Y158.086 E16.93823
G1 X96.172 Y157.377 E16.98191
G1 X95.622 Y156.616 E17.02563
G1 X95.16 Y155.84 E17.06768
G1 X94.737 Y154.963 E17.11302
G1 X94.408 Y154.085 E17.15668
G1 X94.157 Y153.18 E17.20041
G1 X93.986 Y152.252 E17.24435
G1 X93.89 Y151.083 E17.29897
G1 X93.877 Y150.465 E17.32775
G1 X93.878 Y136.368 E17.98417
G1 X93.889 Y135.649 E18.01765
G1 X93.945 Y134.712 E18.06136
G1 X94.084 Y133.784 E18.10505
G1 X94.305 Y132.871 E18.14879
G1 X94.605 Y131.983 E18.19244
G1 X94.983 Y131.123 E18.23618
G1 X95.436 Y130.3 E18.27992
G1 X95.959 Y129.522 E18.32358
G1 X96.549 Y128.792 E18.36728
G1 X97.202 Y128.118 E18.41098
G1 X97.911 Y127.504 E18.45465
G1 X98.647 Y126.971 E18.49697
G1 X100.451 Y125.78 E18.59762
G1 X102.529 Y124.33 E18.71561
G1 X104.566 Y122.823 E18.8336
G1 X106.55 Y121.267 E18.95101
G1 X108.511 Y119.636 E19.06977
G1 X110.39 Y117.98 E19.1864
G1 X112.246 Y116.251 E19.30451
G1 X114.049 Y114.473 E19.42242
G1 X115.793 Y112.652 E19.53983
G1 X117.504 Y110.762 E19.65854
G1 X119.152 Y108.834 E19.77664
G1 X120.729 Y106.88 E19.89357
G1 X122.249 Y104.884 E20.01039
G1 X123.718 Y102.837 E20.12771
G1 X125.154 Y100.712 E20.24713
G1 X126.21 Y99.053 E20.33871
G1 X126.471 Y98.66 E20.36067
G1 X127.024 Y97.902 E20.40436
G0 F6000 X127.325 Y98.165
G1 F1200 X127.919 Y97.485 E20.44641
G1 X128.571 Y96.86 E20.48846
G1 X129.276 Y96.295 E20.53053
G1 X130.028 Y95.794 E20.57261
G1 X130.821 Y95.362 E20.61466
G1 X131.649 Y95.002 E20.6567
G1 X132.506 Y94.717 E20.69875
G1 X133.384 Y94.508 E20.74078
G1 X134.278 Y94.378 E20.78285
G1 X135.013 Y94.331 E20.81714
G1 X135.62 Y94.318 E20.84541
G1 X149.583 Y94.318 E21.49559
G1 X150.427 Y94.329 E21.53489
G1 X151.329 Y94.382 E21.57696
G1 X152.222 Y94.514 E21.619
G1 X153.1 Y94.725 E21.66104
G1 X153.956 Y95.013 E21.7031
G1 X154.783 Y95.375 E21.74514
G1 X155.575 Y95.81 E21.78721
G1 X156.326 Y96.312 E21.82927
G1 X157.029 Y96.879 E21.87133
G1 X157.679 Y97.506 E21.91338
G1 X158.271 Y98.188 E21.95543
G1 X158.801 Y98.919 E21.99748
G1 X159.263 Y99.695 E22.03953
G1 X159.656 Y100.508 E22.08158
G1 X159.974 Y101.353 E22.12362
G1 X160.217 Y102.223 E22.16568
G1 X160.382 Y103.111 E22.20774
G1 X160.477 Y104.241 E22.26054
G1 X160.49 Y104.848 E22.28881
G1 X160.489 Y115.242 E22.7728
G1 X160.476 Y116.011 E22.80861
G1 X160.426 Y117.341 E22.87059
G1 X160.309 Y119.592 E22.97554
G1 X160.242 Y120.343 E23.01065
G1 X160.054 Y121.802 E23.07915
G1 X159.725 Y123.981 E23.18176
G1 X159.581 Y124.739 E23.21769
G1 X159.313 Y125.907 E23.27349
G1 X158.809 Y127.92 E23.37012
G1 X158.672 Y128.431 E23.39475
G1 X158.496 Y129.018 E23.42329
G1 X158.021 Y130.431 E23.4927
G1 X157.271 Y132.505 E23.5954
G1 X156.988 Y133.206 E23.6306
G1 X156.393 Y134.526 E23.69802
G1 X155.434 Y136.535 E23.80168
G1 X155.083 Y137.206 E23.83694
G1 X154.35 Y138.481 E23.90542
G1 X153.209 Y140.371 E24.00822
G1 X152.792 Y141.006 E24.04359
G1 X151.942 Y142.198 E24.11176
G1 X150.632 Y143.953 E24.21374
G1 X150.16 Y144.539 E24.24878
G1 X149.158 Y145.688 E24.31977
G1 X147.688 Y147.297 E24.42125
G1 X147.168 Y147.826 E24.45579
G1 X146.073 Y148.858 E24.52585
G1 X144.451 Y150.318 E24.62747
G1 X143.875 Y150.799 E24.66241
G1 X142.734 Y151.681 E24.72957
G1 X141.217 Y152.805 E24.81748
G1 X140.822 Y153.088 E24.84011
G1 X140.313 Y153.43 E24.86866
G1 X139.065 Y154.211 E24.93721
G1 X137.16 Y155.344 E25.04042
G1 X136.494 Y155.707 E25.07574
G1 X135.196 Y156.352 E25.14323
G1 X133.717 Y157.052 E25.21942
G1 X133.05 Y157.355 E25.25354
G1 X132.48 Y157.593 E25.2823
G1 X131.126 Y158.108 E25.34975
G1 X129.015 Y158.855 E25.45402
G1 X128.291 Y159.081 E25.48934
G1 X126.901 Y159.456 E25.55638
G1 X124.751 Y159.988 E25.65951
G1 X124.002 Y160.144 E25.69514
G1 X122.528 Y160.391 E25.76473
G1 X120.368 Y160.704 E25.86636
G1 X119.621 Y160.784 E25.90134
G1 X118.182 Y160.883 E25.96851
G1 X116.387 Y160.97 E26.05219
G1 X115.094 Y161.009 E26.11242
G1 X105.187 Y161.012 E26.57373
G1 X104.34 Y161.001 E26.61318
G1 X103.438 Y160.948 E26.65525
G1 X102.545 Y160.816 E26.69728
G1 X101.667 Y160.605 E26.73933
G1 X100.811 Y160.317 E26.78138
G1 X99.984 Y159.955 E26.82342
G1 X99.192 Y159.52 E26.8655
G1 X98.441 Y159.018 E26.90756
G1 X97.738 Y158.451 E26.94961
G1 X97.088 Y157.824 E26.99167
G1 X96.496 Y157.142 E27.03372
G1 X95.966 Y156.411 E27.07576
G1 X95.504 Y155.635 E27.11782
G1 X95.111 Y154.822 E27.15986
G1 X94.793 Y153.977 E27.2019
G1 X94.55 Y153.107 E27.24397
G1 X94.385 Y152.219 E27.28602
G1 X94.29 Y151.074 E27.33952
G1 X94.277 Y150.465 E27.36789
G1 X94.278 Y136.374 E28.02402
G1 X94.288 Y135.672 E28.05671
G1 X94.341 Y134.77 E28.09879
G1 X94.473 Y133.877 E28.14082
G1 X94.684 Y132.999 E28.18287
G1 X94.972 Y132.143 E28.22492
G1 X95.334 Y131.315 E28.267
G1 X95.768 Y130.523 E28.30905
G1 X96.271 Y129.773 E28.3511
G1 X96.837 Y129.07 E28.39313
G1 X97.464 Y128.42 E28.43518
G1 X98.146 Y127.828 E28.47723
G1 X98.867 Y127.305 E28.51871
G1 X100.671 Y126.114 E28.61937
G1 X102.767 Y124.652 E28.73836
G1 X104.804 Y123.145 E28.85635
G1 X106.797 Y121.582 E28.97429
G1 X108.767 Y119.943 E29.09361
G1 X110.663 Y118.273 E29.21126
G1 X112.519 Y116.544 E29.32938
G1 X114.33 Y114.758 E29.44781
G1 X116.082 Y112.929 E29.56575
G1 X117.801 Y111.03 E29.68502
G1 X119.456 Y109.094 E29.80362
G1 X121.04 Y107.131 E29.92107
G1 X122.574 Y105.117 E30.03896
G1 X124.043 Y103.07 E30.15628
G1 X125.492 Y100.927 E30.27674
G1 X126.543 Y99.274 E30.36795
G1 X126.794 Y98.895 E30.38911
G1 X127.325 Y98.165 E30.43115
G1 F1500 E26.43115
;MESH:Round_v0.2.stl
G0 F6000 X103.824 Y135.159
G0 X103.824 Y151.465
G0 X115.317 Y151.475
G0 X115.275 Y150.612
;TYPE:WALL-OUTER
G1 F1500 E30.43115
G1 F1200 X104.676 Y150.612 E30.92468
G1 X104.676 Y136.012 E31.60452
G1 X115.305 Y136.008 E32.09945
G1 X117.926 Y135.838 E32.22175
G1 X120.521 Y135.323 E32.34494
G1 X123.005 Y134.482 E32.46706
G1 X125.395 Y133.3 E32.59121
G1 X127.572 Y131.847 E32.71309
G1 X129.564 Y130.103 E32.83637
G1 X131.321 Y128.104 E32.96029
G1 X132.775 Y125.928 E33.08216
G1 X133.948 Y123.549 E33.20567
G1 X134.803 Y121.041 E33.32905
G1 X135.317 Y118.46 E33.45159
G1 X135.489 Y115.82 E33.57478
G1 X135.488 Y104.716 E34.09183
G1 X150.088 Y104.716 E34.77167
G1 X150.088 Y115.815 E35.28848
G1 X149.92 Y119.228 E35.4476
G1 X149.419 Y122.596 E35.60615
G1 X148.588 Y125.913 E35.76538
G1 X147.438 Y129.123 E35.92415
G1 X145.987 Y132.201 E36.0826
G1 X144.221 Y135.148 E36.24258
G1 X142.185 Y137.892 E36.40168
G1 X139.894 Y140.418 E36.56048
G1 X137.368 Y142.709 E36.71927
G1 X134.624 Y144.741 E36.87826
G1 X131.685 Y146.503 E37.03782
G1 X128.599 Y147.963 E37.19679
G1 X125.393 Y149.112 E37.35537
G1 X122.073 Y149.943 E37.51473
G1 X118.708 Y150.44 E37.67312
G1 X115.275 Y150.612 E37.83318
G0 F6000 X115.255 Y150.252
;TYPE:SKIN
G1 F1200 X105.036 Y150.252 E38.30902
G1 X105.036 Y136.372 E38.95533
G1 X115.325 Y136.368 E39.43443
G1 X117.978 Y136.194 E39.55823
G1 X120.6 Y135.673 E39.68271
G1 X123.157 Y134.806 E39.80843
G1 X125.587 Y133.604 E39.93467
G1 X127.784 Y132.139 E40.05763
G1 X129.833 Y130.339 E40.18462
G1 X131.613 Y128.312 E40.31023
G1 X133.079 Y126.12 E40.43303
G1 X134.284 Y123.681 E40.5597
G1 X135.151 Y121.129 E40.6852
G1 X135.669 Y118.532 E40.80851
G1 X135.848 Y115.838 E40.93423
G1 X135.848 Y105.076 E41.43536
G1 X149.728 Y105.076 E42.08167
G1 X149.728 Y115.795 E42.58079
G1 X149.56 Y119.2 E42.73953
G1 X149.063 Y122.52 E42.89585
G1 X148.24 Y125.809 E43.05372
G1 X147.102 Y128.987 E43.2109
G1 X145.675 Y132.017 E43.36686
G1 X143.909 Y134.96 E43.52667
G1 X141.917 Y137.648 E43.68246
G1 X139.638 Y140.162 E43.84047
G1 X137.14 Y142.425 E43.99742
G1 X134.428 Y144.437 E44.15466
G1 X131.505 Y146.187 E44.31329
G1 X128.455 Y147.631 E44.47043
G1 X125.289 Y148.764 E44.627
G1 X121.996 Y149.587 E44.78506
G1 X118.68 Y150.08 E44.94116
G1 X115.255 Y150.252 E45.10084
G1 F1500 E41.10084
G0 F6000 X115.305 Y151.476
G0 X105.236 Y151.477
G0 X105.236 Y149.925
G1 F1500 E45.10084
G1 F1200 X105.363 Y150.052 E45.10921
G0 F6000 X105.929 Y150.052
G1 F1200 X105.236 Y149.359 E45.15484
