;FLAVOR:Marlin
;TIME:425
;Filament used: 0.188267m
;Layer height: 0.2
;MINX:84
;MINY:101.34
;MINZ:0.2
;MAXX:146
;MAXY:128.66
;MAXZ:4
;TARGET_MACHINE.NAME:Creality Ender-3 v2 Neo
;Generated with Cura_SteamEngine 5.7.0
M140 S60
M105
M190 S60
M104 S200
M105
M109 S200
M82 ;absolute extrusion mode
G92 E0 ;Reset Extruder
G28 ;Home
G1 Z2.0 F3000 ;Move Z Axis up
G1 X10.1 Y20 Z0.28 F5000.0 ;Move to start position
G1 X10.1 Y200.0 Z0.28 F1500.0 E15 ;Draw the first line
G1 X10.4 Y200.0 Z0.28 F5000.0 ;Move to side a little
G1 X10.4 Y20 Z0.28 F1500.0 E30 ;Draw the second line
G92 E0 ;Reset Extruder
G1 Z2.0 F3000 ;Move Z Axis up
G92 E0
G92 E0
G1 F1500 E-4
;LAYER_COUNT:20
;LAYER:0
M107
G0 F6000 X88.192 Y103.716 Z0.2
;TYPE:SKIRT
G1 F1500 E0
G1 F1200 X88.924 Y103.186 E0.03006
G1 X89.821 Y102.651 E0.0648
G1 X90.699 Y102.23 E0.09718
G1 X91.612 Y101.888 E0.12961
G1 X92.549 Y101.629 E0.16194
G1 X93.516 Y101.451 E0.19465
G1 X94.655 Y101.355 E0.23266
G1 X95.312 Y101.34 E0.25452
G1 X134.304 Y101.34 E1.5514
G1 X135.184 Y101.353 E1.58067
G1 X136.156 Y101.412 E1.61306
G1 X137.119 Y101.558 E1.64546
G1 X138.066 Y101.789 E1.67788
G1 X138.954 Y102.089 E1.70905
G1 X139.846 Y102.479 E1.74143
G1 X140.729 Y102.966 E1.77497
G1 X141.48 Y103.468 E1.80502
G1 X142.295 Y104.126 E1.83985
G1 X142.993 Y104.804 E1.87222
G1 X143.629 Y105.541 E1.9046
G1 X144.199 Y106.331 E1.937
G1 X144.661 Y107.107 E1.96704
G1 X145.115 Y108.049 E2.00182
G1 X145.444 Y108.927 E2.033
G1 X145.713 Y109.899 E2.06655
G1 X145.89 Y110.865 E2.09921
G1 X145.985 Y111.995 E2.13693
G1 X146 Y112.67 E2.15938
G1 X145.999 Y117.06 E2.30539
G1 X145.988 Y117.823 E2.33077
G1 X145.931 Y118.796 E2.36319
G1 X145.786 Y119.759 E2.39558
G1 X145.557 Y120.705 E2.42796
G1 X145.246 Y121.629 E2.46038
G1 X144.854 Y122.52 E2.49276
G1 X144.386 Y123.372 E2.52509
G1 X143.864 Y124.153 E2.55633
G1 X143.231 Y124.938 E2.58987
G1 X142.606 Y125.589 E2.61989
G1 X141.817 Y126.277 E2.65471
G1 X141.057 Y126.827 E2.68591
G1 X140.19 Y127.344 E2.71948
G1 X139.312 Y127.766 E2.75188
G1 X138.401 Y128.108 E2.78425
G1 X137.462 Y128.369 E2.81666
G1 X136.496 Y128.547 E2.84933
G1 X135.345 Y128.645 E2.88776
G1 X134.67 Y128.66 E2.91021
G1 X95.564 Y128.659 E4.21088
G1 X94.831 Y128.648 E4.23526
G1 X93.859 Y128.591 E4.26765
G1 X92.896 Y128.445 E4.30004
G1 X91.95 Y128.216 E4.33242
G1 X91.026 Y127.904 E4.36485
G1 X90.136 Y127.512 E4.3972
G1 X89.313 Y127.061 E4.42841
G1 X88.474 Y126.5 E4.46198
G1 X87.77 Y125.934 E4.49203
G1 X87.017 Y125.209 E4.52679
G1 X86.38 Y124.473 E4.55917
G1 X85.85 Y123.742 E4.5892
G1 X85.314 Y122.845 E4.62395
G1 X84.892 Y121.967 E4.65635
G1 X84.55 Y121.055 E4.68875
G1 X84.29 Y120.117 E4.72112
G1 X84.112 Y119.148 E4.75389
G1 X84.014 Y117.969 E4.79324
G1 X84 Y117.318 E4.8149
G1 X84.001 Y112.865 E4.96301
G1 X84.012 Y112.165 E4.98629
G1 X84.07 Y111.192 E5.01871
G1 X84.216 Y110.229 E5.05111
G1 X84.446 Y109.283 E5.08349
G1 X84.759 Y108.36 E5.1159
G1 X85.151 Y107.47 E5.14825
G1 X85.621 Y106.617 E5.18064
G1 X86.164 Y105.809 E5.21302
G1 X86.731 Y105.105 E5.24309
G1 X87.456 Y104.353 E5.27783
G1 X88.192 Y103.716 E5.3102
G0 F6000 X88.427 Y104.04
G1 F1200 X89.159 Y103.51 E5.34026
G1 X89.995 Y103.011 E5.37264
G1 X90.84 Y102.604 E5.40384
G1 X91.719 Y102.273 E5.43508
G1 X92.622 Y102.022 E5.46625
G1 X93.55 Y101.85 E5.49764
G1 X94.689 Y101.754 E5.53566
G1 X95.321 Y101.74 E5.55669
G1 X134.298 Y101.74 E6.85307
G1 X135.16 Y101.752 E6.88174
G1 X136.097 Y101.808 E6.91296
G1 X137.025 Y101.947 E6.94417
G1 X137.938 Y102.168 E6.97541
G1 X138.794 Y102.456 E7.00545
G1 X139.686 Y102.846 E7.03783
G1 X140.507 Y103.299 E7.06902
G1 X141.258 Y103.801 E7.09906
G1 X142.017 Y104.413 E7.13149
G1 X142.691 Y105.066 E7.1627
G1 X143.305 Y105.775 E7.1939
G1 X143.855 Y106.536 E7.22513
G1 X144.317 Y107.312 E7.25517
G1 X144.74 Y108.189 E7.28755
G1 X145.069 Y109.067 E7.31874
G1 X145.32 Y109.972 E7.34997
G1 X145.491 Y110.899 E7.38133
G1 X145.586 Y112.029 E7.41904
G1 X145.6 Y112.67 E7.44037
G1 X145.599 Y117.055 E7.58621
G1 X145.589 Y117.8 E7.61099
G1 X145.535 Y118.737 E7.64221
G1 X145.397 Y119.666 E7.67345
G1 X145.178 Y120.578 E7.70464
G1 X144.88 Y121.468 E7.73586
G1 X144.503 Y122.328 E7.76709
G1 X144.053 Y123.15 E7.79826
G1 X143.531 Y123.931 E7.8295
G1 X142.942 Y124.661 E7.8607
G1 X142.317 Y125.312 E7.89072
G1 X141.582 Y125.953 E7.92315
G1 X140.822 Y126.503 E7.95436
G1 X140.016 Y126.984 E7.98558
G1 X139.171 Y127.392 E8.01679
G1 X138.293 Y127.723 E8.04799
G1 X137.389 Y127.976 E8.07922
G1 X136.462 Y128.148 E8.11057
G1 X135.311 Y128.246 E8.149
G1 X134.67 Y128.26 E8.17032
G1 X95.57 Y128.259 E9.47079
G1 X94.854 Y128.249 E9.49461
G1 X93.918 Y128.195 E9.52579
G1 X92.989 Y128.056 E9.55703
G1 X92.077 Y127.837 E9.58823
G1 X91.187 Y127.538 E9.61946
G1 X90.328 Y127.161 E9.65066
G1 X89.505 Y126.71 E9.68187
G1 X88.725 Y126.188 E9.71309
G1 X88.021 Y125.622 E9.74313
G1 X87.319 Y124.947 E9.77552
G1 X86.704 Y124.238 E9.80674
G1 X86.174 Y123.507 E9.83677
G1 X85.674 Y122.671 E9.86917
G1 X85.266 Y121.826 E9.90038
G1 X84.935 Y120.948 E9.93159
G1 X84.683 Y120.044 E9.9628
G1 X84.511 Y119.115 E9.99423
G1 X84.413 Y117.936 E10.03358
G1 X84.4 Y117.318 E10.05413
G1 X84.401 Y112.871 E10.20204
G1 X84.411 Y112.188 E10.22476
G1 X84.466 Y111.251 E10.25598
G1 X84.605 Y110.323 E10.28719
G1 X84.825 Y109.411 E10.31839
G1 X85.125 Y108.521 E10.34963
G1 X85.502 Y107.662 E10.38083
G1 X85.953 Y106.84 E10.41202
G1 X86.476 Y106.06 E10.44325
G1 X87.043 Y105.356 E10.47332
G1 X87.718 Y104.655 E10.50568
G1 X88.427 Y104.04 E10.5369
G0 F6000 X88.662 Y104.364
G1 F1200 X89.394 Y103.834 E10.56696
G1 X90.169 Y103.371 E10.59698
G1 X90.982 Y102.978 E10.62702
G1 X91.827 Y102.658 E10.65707
G1 X92.696 Y102.415 E10.68708
G1 X93.584 Y102.249 E10.71713
G1 X94.723 Y102.153 E10.75515
G1 X95.33 Y102.14 E10.77534
G1 X134.293 Y102.14 E12.07126
G1 X135.137 Y102.151 E12.09933
G1 X136.039 Y102.204 E12.12938
G1 X136.932 Y102.336 E12.15941
G1 X137.81 Y102.547 E12.18944
G1 X138.666 Y102.835 E12.21948
G1 X139.493 Y103.197 E12.2495
G1 X140.285 Y103.632 E12.27956
G1 X141.036 Y104.134 E12.3096
G1 X141.739 Y104.701 E12.33964
G1 X142.389 Y105.328 E12.36968
G1 X142.981 Y106.01 E12.39972
G1 X143.511 Y106.741 E12.42975
G1 X143.973 Y107.517 E12.45979
G1 X144.366 Y108.33 E12.48982
G1 X144.684 Y109.175 E12.51985
G1 X144.927 Y110.045 E12.54989
G1 X145.092 Y110.933 E12.57993
G1 X145.187 Y112.063 E12.61765
G1 X145.2 Y112.67 E12.63784
G1 X145.199 Y117.05 E12.78352
G1 X145.19 Y117.777 E12.80771
G1 X145.139 Y118.679 E12.83775
G1 X145.008 Y119.573 E12.86781
G1 X144.799 Y120.451 E12.89782
G1 X144.513 Y121.308 E12.92787
G1 X144.152 Y122.136 E12.95792
G1 X143.72 Y122.928 E12.98792
G1 X143.219 Y123.68 E13.01798
G1 X142.653 Y124.384 E13.04802
G1 X142.028 Y125.035 E13.07804
G1 X141.347 Y125.629 E13.10809
G1 X140.616 Y126.16 E13.13814
G1 X139.842 Y126.624 E13.16816
G1 X139.029 Y127.018 E13.19821
G1 X138.185 Y127.338 E13.22823
G1 X137.315 Y127.583 E13.25829
G1 X136.428 Y127.749 E13.2883
G1 X135.277 Y127.847 E13.32673
G1 X134.67 Y127.86 E13.34692
G1 X95.575 Y127.859 E14.64722
G1 X94.877 Y127.85 E14.67044
G1 X93.976 Y127.799 E14.70046
G1 X93.082 Y127.667 E14.73051
G1 X92.204 Y127.458 E14.76053
G1 X91.347 Y127.171 E14.79059
G1 X90.52 Y126.81 E14.8206
G1 X89.727 Y126.377 E14.85066
G1 X88.976 Y125.876 E14.88068
G1 X88.272 Y125.31 E14.91073
G1 X87.621 Y124.684 E14.94076
G1 X87.028 Y124.003 E14.9708
G1 X86.498 Y123.272 E15.00083
G1 X86.034 Y122.497 E15.03087
G1 X85.64 Y121.684 E15.06092
G1 X85.32 Y120.84 E15.09094
G1 X85.076 Y119.97 E15.121
G1 X84.91 Y119.082 E15.15104
G1 X84.813 Y117.927 E15.18959
G1 X84.8 Y117.318 E15.20985
G1 X84.801 Y112.876 E15.35759
G1 X84.81 Y112.211 E15.37971
G1 X84.862 Y111.309 E15.40977
G1 X84.994 Y110.416 E15.43979
G1 X85.204 Y109.538 E15.46982
G1 X85.491 Y108.681 E15.49988
G1 X85.853 Y107.854 E15.5299
G1 X86.286 Y107.062 E15.55992
G1 X86.788 Y106.311 E15.58997
G1 X87.355 Y105.607 E15.62003
G1 X87.981 Y104.957 E15.65005
G1 X88.662 Y104.364 E15.68008
G1 F1500 E11.68008
;MESH:Bazsalikom_label.stl
G0 F6000 X135.653 Y111.687
G0 X135.653 Y118.313
G0 X134.8 Y118.325
G0 X134.8 Y117.46
;TYPE:WALL-OUTER
G1 F1500 E15.68008
G1 F1200 X95.2 Y117.46 E16.99718
G1 X95.2 Y112.54 E17.16082
G1 X134.8 Y112.54 E18.47792
G1 X134.8 Y117.46 E18.64156
G0 F6000 X134.44 Y117.1
;TYPE:SKIN
G1 F1200 X95.56 Y117.1 E19.93472
G1 X95.56 Y112.9 E20.07441
G1 X134.44 Y112.9 E21.36756
G1 X134.44 Y117.1 E21.50726
G1 F1500 E17.50726
G0 F6000 X135.665 Y117.1
G0 X135.665 Y113.1
G0 X134.031 Y113.1
G1 F1500 E21.50726
G1 F1200 X134.24 Y113.31 E21.51711
G0 F6000 X134.24 Y113.875
G1 F1200 X133.465 Y113.1 E21.55357
G0 F6000 X132.899 Y113.1
G1 F1200 X134.24 Y114.441 E21.61664
G0 F6000 X134.24 Y115.007
G1 F1200 X132.334 Y113.1 E21.70632
G0 F6000 X131.768 Y113.1
G1 F1200 X134.24 Y115.572 E21.82259
G0 F6000 X134.24 Y116.138
G1 F1200 X131.202 Y113.1 E21.96549
G0 F6000 X130.637 Y113.1
G1 F1200 X134.24 Y116.704 E22.13499
G0 F6000 X133.87 Y116.9
G1 F1200 X130.071 Y113.1 E22.31371
G0 F6000 X129.505 Y113.1
G1 F1200 X133.304 Y116.9 E22.49242
G0 F6000 X132.739 Y116.9
G1 F1200 X128.94 Y113.1 E22.67114
G0 F6000 X128.374 Y113.1
G1 F1200 X132.173 Y116.9 E22.84986
G0 F6000 X131.607 Y116.9
G1 F1200 X127.808 Y113.1 E23.02857
G0 F6000 X127.242 Y113.1
G1 F1200 X131.042 Y116.9 E23.20731
G0 F6000 X130.476 Y116.9
G1 F1200 X126.677 Y113.1 E23.38603
G0 F6000 X126.111 Y113.1
G1 F1200 X129.91 Y116.9 E23.56475
G0 F6000 X129.345 Y116.9
G1 F1200 X125.545 Y113.1 E23.74349
G0 F6000 X124.98 Y113.1
G1 F1200 X128.779 Y116.9 E23.9222
G0 F6000 X128.213 Y116.9
G1 F1200 X124.414 Y113.1 E24.10092
G0 F6000 X123.848 Y113.1
G1 F1200 X127.648 Y116.9 E24.27966
G0 F6000 X127.082 Y116.9
G1 F1200 X123.283 Y113.1 E24.45838
G0 F6000 X122.717 Y113.1
G1 F1200 X126.516 Y116.9 E24.63709
G0 F6000 X125.951 Y116.9
G1 F1200 X122.151 Y113.1 E24.81584
G0 F6000 X121.586 Y113.1
G1 F1200 X125.385 Y116.9 E24.99455
G0 F6000 X124.819 Y116.9
G1 F1200 X121.02 Y113.1 E25.17327
G0 F6000 X120.454 Y113.1
G1 F1200 X124.254 Y116.9 E25.35201
G0 F6000 X123.688 Y116.9
G1 F1200 X119.889 Y113.1 E25.53073
G0 F6000 X119.323 Y113.1
G1 F1200 X123.122 Y116.9 E25.70944
G0 F6000 X122.556 Y116.9
G1 F1200 X118.757 Y113.1 E25.88816
G0 F6000 X118.191 Y113.1
G1 F1200 X121.991 Y116.9 E26.0669
G0 F6000 X121.425 Y116.9
G1 F1200 X117.626 Y113.1 E26.24562
G0 F6000 X117.06 Y113.1
G1 F1200 X120.859 Y116.9 E26.42433
G0 F6000 X120.294 Y116.9
G1 F1200 X116.494 Y113.1 E26.60307
G0 F6000 X115.929 Y113.1
G1 F1200 X119.728 Y116.9 E26.78179
G0 F6000 X119.162 Y116.9
G1 F1200 X115.363 Y113.1 E26.96051
G0 F6000 X114.797 Y113.1
G1 F1200 X118.597 Y116.9 E27.13925
G0 F6000 X118.031 Y116.9
G1 F1200 X114.232 Y113.1 E27.31797
G0 F6000 X113.666 Y113.1
G1 F1200 X117.465 Y116.9 E27.49668
G0 F6000 X116.9 Y116.9
G1 F1200 X113.1 Y113.1 E27.67542
G0 F6000 X112.535 Y113.1
G1 F1200 X116.334 Y116.9 E27.85414
G0 F6000 X115.768 Y116.9
G1 F1200 X111.969 Y113.1 E28.03286
G0 F6000 X111.403 Y113.1
G1 F1200 X115.203 Y116.9 E28.2116
G0 F6000 X114.637 Y116.9
G1 F1200 X110.838 Y113.1 E28.39031
G0 F6000 X110.272 Y113.1
G1 F1200 X114.071 Y116.9 E28.56903
G0 F6000 X113.505 Y116.9
G1 F1200 X109.706 Y113.1 E28.74775
G0 F6000 X109.141 Y113.1
G1 F1200 X112.94 Y116.9 E28.92646
G0 F6000 X112.374 Y116.9
G1 F1200 X108.575 Y113.1 E29.10518
G0 F6000 X108.009 Y113.1
G1 F1200 X111.808 Y116.9 E29.2839
G0 F6000 X111.243 Y116.9
G1 F1200 X107.443 Y113.1 E29.46264
G0 F6000 X106.878 Y113.1
G1 F1200 X110.677 Y116.9 E29.64135
G0 F6000 X110.111 Y116.9
G1 F1200 X106.312 Y113.1 E29.82007
G0 F6000 X105.746 Y113.1
G1 F1200 X109.546 Y116.9 E29.99881
G0 F6000 X108.98 Y116.9
G1 F1200 X105.181 Y113.1 E30.17753
G0 F6000 X104.615 Y113.1
G1 F1200 X108.414 Y116.9 E30.35625
G0 F6000 X107.849 Y116.9
G1 F1200 X104.049 Y113.1 E30.53499
G0 F6000 X103.484 Y113.1
G1 F1200 X107.283 Y116.9 E30.7137
G0 F6000 X106.717 Y116.9
G1 F1200 X102.918 Y113.1 E30.89242
G0 F6000 X102.352 Y113.1
G1 F1200 X106.152 Y116.9 E31.07116
G0 F6000 X105.586 Y116.9
G1 F1200 X101.787 Y113.1 E31.24988
G0 F6000 X101.221 Y113.1
G1 F1200 X105.02 Y116.9 E31.42859
G0 F6000 X104.455 Y116.9
G1 F1200 X100.655 Y113.1 E31.60733
G0 F6000 X100.09 Y113.1
G1 F1200 X103.889 Y116.9 E31.78605
G0 F6000 X103.323 Y116.9
G1 F1200 X99.524 Y113.1 E31.96477
G0 F6000 X98.958 Y113.1
G1 F1200 X102.757 Y116.9 E32.14348
G0 F6000 X102.192 Y116.9
G1 F1200 X98.392 Y113.1 E32.32222
G0 F6000 X97.827 Y113.1
G1 F1200 X101.626 Y116.9 E32.50094
G0 F6000 X101.06 Y116.9
G1 F1200 X97.261 Y113.1 E32.67966
G0 F6000 X96.695 Y113.1
G1 F1200 X100.495 Y116.9 E32.8584
G0 F6000 X99.929 Y116.9
G1 F1200 X96.13 Y113.1 E33.03712
G0 F6000 X95.76 Y113.296
G1 F1200 X99.363 Y116.9 E33.20661
G0 F6000 X98.798 Y116.9
G1 F1200 X95.76 Y113.862 E33.34951
G0 F6000 X95.76 Y114.428
G1 F1200 X98.232 Y116.9 E33.46579
G0 F6000 X97.666 Y116.9
G1 F1200 X95.76 Y114.993 E33.55546
G0 F6000 X95.76 Y115.559
G1 F1200 X97.101 Y116.9 E33.61854
G0 F6000 X96.535 Y116.9
G1 F1200 X95.76 Y116.125 E33.65499
G0 F6000 X95.76 Y116.69
G1 F1200 X95.969 Y116.9 E33.66485
G1 F1500 E29.66485
;MESH:NONMESH
G0 F300 X95.969 Y116.9 Z0.4
G0 F6000 X94.335 Y116.9
G0 X88.662 Y104.364
;TIME_ELAPSED:63.276632
;LAYER:1
M106 S85
;TYPE:SKIRT
G1 F1500 E33.66485
G1 F1200 X89.394 Y103.834 E33.6949
G1 X90.169 Y103.371 E33.72493
G1 X90.982 Y102.978 E33.75497
G1 X91.827 Y102.658 E33.78502
G1 X92.696 Y102.415 E33.81503
G1 X93.584 Y102.249 E33.84508
G1 X94.723 Y102.153 E33.88309
G1 X95.33 Y102.14 E33.90329
G1 X134.293 Y102.14 E35.1992
G1 X135.137 Y102.151 E35.22728
G1 X136.039 Y102.204 E35.25733
G1 X136.932 Y102.336 E35.28735
G1 X137.81 Y102.547 E35.31739
G1 X138.666 Y102.835 E35.34743
G1 X139.493 Y103.197 E35.37745
G1 X140.285 Y103.632 E35.4075
G1 X141.036 Y104.134 E35.43755
G1 X141.739 Y104.701 E35.46759
G1 X142.389 Y105.328 E35.49763
G1 X142.981 Y106.01 E35.52766
G1 X143.511 Y106.741 E35.5577
G1 X143.973 Y107.517 E35.58773
G1 X144.366 Y108.33 E35.61777
G1 X144.684 Y109.175 E35.6478
G1 X144.927 Y110.045 E35.67784
G1 X145.092 Y110.933 E35.70788
G1 X145.187 Y112.063 E35.7456
G1 X145.2 Y112.67 E35.76579
G1 X145.199 Y117.05 E35.91147
G1 X145.19 Y117.777 E35.93565
G1 X145.139 Y118.679 E35.9657
G1 X145.008 Y119.573 E35.99575
G1 X144.799 Y120.451 E36.02577
G1 X144.513 Y121.308 E36.05582
G1 X144.152 Y122.136 E36.08586
G1 X143.72 Y122.928 E36.11587
G1 X143.219 Y123.68 E36.14592
G1 X142.653 Y124.384 E36.17597
G1 X142.028 Y125.035 E36.20598
G1 X141.347 Y125.629 E36.23604
G1 X140.616 Y126.16 E36.26609
G1 X139.842 Y126.624 E36.2961
G1 X139.029 Y127.018 E36.32615
G1 X138.185 Y127.338 E36.35617
G1 X137.315 Y127.583 E36.38624
G1 X136.428 Y127.749 E36.41625
G1 X135.277 Y127.847 E36.45467
G1 X134.67 Y127.86 E36.47486
G1 X95.575 Y127.859 E37.77517
G1 X94.877 Y127.85 E37.79839
G1 X93.976 Y127.799 E37.8284
G1 X93.082 Y127.667 E37.85846
G1 X92.204 Y127.458 E37.88848
G1 X91.347 Y127.171 E37.91854
G1 X90.52 Y126.81 E37.94855
G1 X89.727 Y126.377 E37.9786
G1 X88.976 Y125.876 E38.00863
G1 X88.272 Y125.31 E38.03867
G1 X87.621 Y124.684 E38.06871
G1 X87.028 Y124.003 E38.09874
G1 X86.498 Y123.272 E38.12878
G1 X86.034 Y122.497 E38.15882
G1 X85.64 Y121.684 E38.18887
G1 X85.32 Y120.84 E38.21889
G1 X85.076 Y119.97 E38.24894
G1 X84.91 Y119.082 E38.27899
G1 X84.813 Y117.927 E38.31754
G1 X84.8 Y117.318 E38.3378
G1 X84.801 Y112.876 E38.48554
G1 X84.81 Y112.211 E38.50766
G1 X84.862 Y111.309 E38.53771
G1 X84.994 Y110.416 E38.56774
G1 X85.204 Y109.538 E38.59776
G1 X85.491 Y108.681 E38.62782
G1 X85.853 Y107.854 E38.65785
G1 X86.286 Y107.062 E38.68787
G1 X86.788 Y106.311 E38.71791
G1 X87.355 Y105.607 E38.74798
G1 X87.981 Y104.957 E38.77799
G1 X88.662 Y104.364 E38.80803
G1 F1500 E34.80803
